static/img/kroki/73d64c208f88e7bde58498c26ba5f68f.svg

<?xml version="1.0" encoding="us-ascii" standalone="no"?><svg xmlns="http://www.w3.org/2000/svg" xmlns:xlink="http://www.w3.org/1999/xlink" contentStyleType="text/css" height="645px" preserveAspectRatio="none" style="width:797px;height:645px;" version="1.1" viewBox="0 0 797 645" width="797px" zoomAndPan="magnify"><defs/><g><!--class aws_iam_role--><g id="elem_aws_iam_role"><rect codeLine="23" fill="#3D176E" height="39.7891" id="aws_iam_role" rx="2.5" ry="2.5" style="stroke:#000D19;stroke-width:0.5;" width="157" x="7" y="599.55"/><ellipse cx="22" cy="619.4445" fill="#ADD1B2" rx="11" ry="11" style="stroke:#181818;stroke-width:1.0;"/><path d="M24.9688,625.0852 Q24.3906,625.382 23.75,625.5227 Q23.1094,625.6789 22.4063,625.6789 Q19.9063,625.6789 18.5781,624.0383 Q17.2656,622.382 17.2656,619.257 Q17.2656,616.132 18.5781,614.4758 Q19.9063,612.8195 22.4063,612.8195 Q23.1094,612.8195 23.75,612.9758 Q24.4063,613.132 24.9688,613.4289 L24.9688,616.1477 Q24.3438,615.5695 23.75,615.3039 Q23.1563,615.0227 22.5313,615.0227 Q21.1875,615.0227 20.5,616.1008 Q19.8125,617.1633 19.8125,619.257 Q19.8125,621.3508 20.5,622.4289 Q21.1875,623.4914 22.5313,623.4914 Q23.1563,623.4914 23.75,623.2258 Q24.3438,622.9445 24.9688,622.3664 L24.9688,625.0852 Z " fill="#000000"/><text fill="#D9B8FF" font-family="Helvetica" font-size="17" lengthAdjust="spacing" textLength="115" x="41" y="625.3298">aws_iam_role</text></g><!--class azure_authorization_role_definition--><g id="elem_azure_authorization_role_definition"><rect codeLine="26" fill="#3D176E" height="39.7891" id="azure_authorization_role_definition" rx="2.5" ry="2.5" style="stroke:#000D19;stroke-width:0.5;" width="339" x="199" y="599.55"/><ellipse cx="214" cy="619.4445" fill="#ADD1B2" rx="11" ry="11" style="stroke:#181818;stroke-width:1.0;"/><path d="M216.9688,625.0852 Q216.3906,625.382 215.75,625.5227 Q215.1094,625.6789 214.4063,625.6789 Q211.9063,625.6789 210.5781,624.0383 Q209.2656,622.382 209.2656,619.257 Q209.2656,616.132 210.5781,614.4758 Q211.9063,612.8195 214.4063,612.8195 Q215.1094,612.8195 215.75,612.9758 Q216.4063,613.132 216.9688,613.4289 L216.9688,616.1477 Q216.3438,615.5695 215.75,615.3039 Q215.1563,615.0227 214.5313,615.0227 Q213.1875,615.0227 212.5,616.1008 Q211.8125,617.1633 211.8125,619.257 Q211.8125,621.3508 212.5,622.4289 Q213.1875,623.4914 214.5313,623.4914 Q215.1563,623.4914 215.75,623.2258 Q216.3438,622.9445 216.9688,622.3664 L216.9688,625.0852 Z " fill="#000000"/><text fill="#D9B8FF" font-family="Helvetica" font-size="17" lengthAdjust="spacing" textLength="297" x="233" y="625.3298">azure_authorization_role_definition</text></g><!--class microsoft_graph_role--><g id="elem_microsoft_graph_role"><rect codeLine="29" fill="#3D176E" height="39.7891" id="microsoft_graph_role" rx="2.5" ry="2.5" style="stroke:#000D19;stroke-width:0.5;" width="218" x="572.5" y="599.55"/><ellipse cx="587.5" cy="619.4445" fill="#ADD1B2" rx="11" ry="11" style="stroke:#181818;stroke-width:1.0;"/><path d="M590.4688,625.0852 Q589.8906,625.382 589.25,625.5227 Q588.6094,625.6789 587.9063,625.6789 Q585.4063,625.6789 584.0781,624.0383 Q582.7656,622.382 582.7656,619.257 Q582.7656,616.132 584.0781,614.4758 Q585.4063,612.8195 587.9063,612.8195 Q588.6094,612.8195 589.25,612.9758 Q589.9063,613.132 590.4688,613.4289 L590.4688,616.1477 Q589.8438,615.5695 589.25,615.3039 Q588.6563,615.0227 588.0313,615.0227 Q586.6875,615.0227 586,616.1008 Q585.3125,617.1633 585.3125,619.257 Q585.3125,621.3508 586,622.4289 Q586.6875,623.4914 588.0313,623.4914 Q588.6563,623.4914 589.25,623.2258 Q589.8438,622.9445 590.4688,622.3664 L590.4688,625.0852 Z " fill="#000000"/><text fill="#D9B8FF" font-family="Helvetica" font-size="17" lengthAdjust="spacing" textLength="176" x="606.5" y="625.3298">microsoft_graph_role</text></g><!--class resource--><g id="elem_resource"><rect codeLine="32" fill="#3D176E" height="310.7578" id="resource" rx="2.5" ry="2.5" style="stroke:#000D19;stroke-width:0.5;" width="227" x="255" y="7"/><ellipse cx="323.75" cy="26.8945" fill="#ADD1B2" rx="11" ry="11" style="stroke:#181818;stroke-width:1.0;"/><path d="M326.7188,32.5352 Q326.1406,32.832 325.5,32.9727 Q324.8594,33.1289 324.1563,33.1289 Q321.6563,33.1289 320.3281,31.4883 Q319.0156,29.832 319.0156,26.707 Q319.0156,23.582 320.3281,21.9258 Q321.6563,20.2695 324.1563,20.2695 Q324.8594,20.2695 325.5,20.4258 Q326.1563,20.582 326.7188,20.8789 L326.7188,23.5977 Q326.0938,23.0195 325.5,22.7539 Q324.9063,22.4727 324.2813,22.4727 Q322.9375,22.4727 322.25,23.5508 Q321.5625,24.6133 321.5625,26.707 Q321.5625,28.8008 322.25,29.8789 Q322.9375,30.9414 324.2813,30.9414 Q324.9063,30.9414 325.5,30.6758 Q326.0938,30.3945 326.7188,29.8164 L326.7188,32.5352 Z " fill="#000000"/><text fill="#D9B8FF" font-family="Helvetica" font-size="17" lengthAdjust="spacing" textLength="71" x="349.25" y="32.7798">resource</text><line style="stroke:#000D19;stroke-width:0.5;" x1="256" x2="481" y1="46.7891" y2="46.7891"/><text fill="#D9B8FF" font-family="sans-serif" font-size="14" font-weight="bold" lengthAdjust="spacing" textLength="29" x="266" y="68.7842">age</text><text fill="#D9B8FF" font-family="sans-serif" font-size="14" lengthAdjust="spacing" textLength="66" x="295" y="68.7842">: duration</text><text fill="#D9B8FF" font-family="sans-serif" font-size="14" font-weight="bold" lengthAdjust="spacing" textLength="43" x="266" y="95.0811">atime</text><text fill="#D9B8FF" font-family="sans-serif" font-size="14" lengthAdjust="spacing" textLength="70" x="309" y="95.0811">: datetime</text><text fill="#D9B8FF" font-family="sans-serif" font-size="14" font-weight="bold" lengthAdjust="spacing" textLength="43" x="266" y="121.3779">ctime</text><text fill="#D9B8FF" font-family="sans-serif" font-size="14" lengthAdjust="spacing" textLength="70" x="309" y="121.3779">: datetime</text><text fill="#D9B8FF" font-family="sans-serif" font-size="14" font-weight="bold" lengthAdjust="spacing" textLength="14" x="266" y="147.6748">id</text><text fill="#D9B8FF" font-family="sans-serif" font-size="14" lengthAdjust="spacing" textLength="48" x="280" y="147.6748">: string</text><text fill="#D9B8FF" font-family="sans-serif" font-size="14" font-weight="bold" lengthAdjust="spacing" textLength="33" x="266" y="173.9717">kind</text><text fill="#D9B8FF" font-family="sans-serif" font-size="14" lengthAdjust="spacing" textLength="48" x="299" y="173.9717">: string</text><text fill="#D9B8FF" font-family="sans-serif" font-size="14" font-weight="bold" lengthAdjust="spacing" textLength="90" x="266" y="200.2686">last_access</text><text fill="#D9B8FF" font-family="sans-serif" font-size="14" lengthAdjust="spacing" textLength="66" x="356" y="200.2686">: duration</text><text fill="#D9B8FF" font-family="sans-serif" font-size="14" font-weight="bold" lengthAdjust="spacing" textLength="90" x="266" y="226.5654">last_update</text><text fill="#D9B8FF" font-family="sans-serif" font-size="14" lengthAdjust="spacing" textLength="66" x="356" y="226.5654">: duration</text><text fill="#D9B8FF" font-family="sans-serif" font-size="14" font-weight="bold" lengthAdjust="spacing" textLength="48" x="266" y="252.8623">mtime</text><text fill="#D9B8FF" font-family="sans-serif" font-size="14" lengthAdjust="spacing" textLength="70" x="314" y="252.8623">: datetime</text><text fill="#D9B8FF" font-family="sans-serif" font-size="14" font-weight="bold" lengthAdjust="spacing" textLength="43" x="266" y="279.1592">name</text><text fill="#D9B8FF" font-family="sans-serif" font-size="14" lengthAdjust="spacing" textLength="48" x="309" y="279.1592">: string</text><text fill="#D9B8FF" font-family="sans-serif" font-size="14" font-weight="bold" lengthAdjust="spacing" textLength="34" x="266" y="305.4561">tags</text><text fill="#D9B8FF" font-family="sans-serif" font-size="14" lengthAdjust="spacing" textLength="171" x="300" y="305.4561">: dictionary[string, string]</text></g><!--class role--><g id="elem_role"><rect codeLine="44" fill="#3D176E" height="39.7891" id="role" rx="2.5" ry="2.5" style="stroke:#000D19;stroke-width:0.5;" width="74" x="331.5" y="438.76"/><ellipse cx="346.5" cy="458.6545" fill="#ADD1B2" rx="11" ry="11" style="stroke:#181818;stroke-width:1.0;"/><path d="M349.4688,464.2952 Q348.8906,464.592 348.25,464.7327 Q347.6094,464.8889 346.9063,464.8889 Q344.4063,464.8889 343.0781,463.2483 Q341.7656,461.592 341.7656,458.467 Q341.7656,455.342 343.0781,453.6858 Q344.4063,452.0295 346.9063,452.0295 Q347.6094,452.0295 348.25,452.1858 Q348.9063,452.342 349.4688,452.6389 L349.4688,455.3577 Q348.8438,454.7795 348.25,454.5139 Q347.6563,454.2327 347.0313,454.2327 Q345.6875,454.2327 345,455.3108 Q344.3125,456.3733 344.3125,458.467 Q344.3125,460.5608 345,461.6389 Q345.6875,462.7014 347.0313,462.7014 Q347.6563,462.7014 348.25,462.4358 Q348.8438,462.1545 349.4688,461.5764 L349.4688,464.2952 Z " fill="#000000"/><text fill="#D9B8FF" font-family="Helvetica" font-size="17" lengthAdjust="spacing" textLength="32" x="365.5" y="464.5398">role</text></g><!--reverse link role to aws_iam_role--><g id="link_role_aws_iam_role"><path codeLine="47" d="M318.3823,487.778 C263.8823,518.358 174.03,568.77 119.68,599.27 " fill="none" id="role-backto-aws_iam_role" style="stroke:#FFAF37;stroke-width:2.0;"/><polygon fill="none" points="334.08,478.97,315.4463,482.5454,321.3183,493.0106,334.08,478.97" style="stroke:#FFAF37;stroke-width:2.0;"/></g><!--reverse link role to azure_authorization_role_definition--><g id="link_role_azure_authorization_role_definition"><path codeLine="48" d="M368.5,496.81 C368.5,527.33 368.5,568.66 368.5,599.22 " fill="none" id="role-backto-azure_authorization_role_definition" style="stroke:#FFAF37;stroke-width:2.0;"/><polygon fill="none" points="368.5,478.81,362.5,496.81,374.5,496.81,368.5,478.81" style="stroke:#FFAF37;stroke-width:2.0;"/></g><!--reverse link role to microsoft_graph_role--><g id="link_role_microsoft_graph_role"><path codeLine="49" d="M421.9924,486.7938 C482.0324,517.2538 583.15,568.55 643.52,599.18 " fill="none" id="role-backto-microsoft_graph_role" style="stroke:#FFAF37;stroke-width:2.0;"/><polygon fill="none" points="405.94,478.65,419.2778,492.1446,424.707,481.443,405.94,478.65" style="stroke:#FFAF37;stroke-width:2.0;"/></g><!--reverse link resource to role--><g id="link_resource_role"><path codeLine="50" d="M368.5,335.85 C368.5,384.14 368.5,413.37 368.5,438.68 " fill="none" id="resource-backto-role" style="stroke:#FFAF37;stroke-width:2.0;"/><polygon fill="none" points="368.5,317.85,362.5,335.85,374.5,335.85,368.5,317.85" style="stroke:#FFAF37;stroke-width:2.0;"/></g><!--SRC=[XPDVQzim5CNV_Ia4VGiD92jRcjANBb2wbpBMlOrXRgGhMyIIpDLrGxBjky-osrInq-PDEkVdS_yWbqQXG5lpJbYqQwIGXOrnDH1OSKVajojVUH8NMeE-MWpDU-_uBF085iK3Li_8HiAG-5aQkN4OWlYKM5z1RWhoZLDzF1Euq5heEA5M5OHmnqnctJ0cpQZb-bhh8JaClRXIyyKN766U5D8BCflDr7mvHCwM-d3k0_5azYZcwT8UFUEepL69ZlgmoqWaJOu6VVNVxV4xA6LS8Judse- -9t98H_fJ2Sfl8wsX2ccPm4ZeULVZQZGLBg-LNfo4lxq7PpAkJi0sv0PiJhv2yIVB_htg-uOmXuPBJsOFRBphc5oXDix4UufR8ya7hpal2Efo54SOV4CoQfC953YPt0ZLK9SR5JQsru0ndbjDdj2CYa9eNwahscixxx7Grk8Sf6p_WK65pcdgc3Lmx8aw3dhf4CnGz8b6ni-0Thzwx_A5-Vqswc7qxdJxTpgT7gtvI3-_vXG_jURiiDkUwRJ_]--></g></svg>

<svg xmlns="http://www.w3.org/2000/svg" width="797" height="645" viewBox="0 0 797 645"><rect width="157" height="39.789" x="7" y="599.55" fill="#3D176E" rx="2.5" ry="2.5" style="stroke:#000d19;stroke-width:.5"/><circle cx="22" cy="619.444" r="11" fill="#ADD1B2" style="stroke:#181818;stroke-width:1"/><path d="M24.969 625.085q-.578.297-1.219.438-.64.156-1.344.156-2.5 0-3.828-1.64-1.312-1.657-1.312-4.782t1.312-4.781q1.328-1.657 3.828-1.657.703 0 1.344.157.656.156 1.219.453v2.719q-.625-.579-1.219-.844-.594-.281-1.219-.281-1.343 0-2.031 1.078-.687 1.062-.687 3.156t.687 3.172q.688 1.062 2.031 1.062.625 0 1.219-.265.594-.282 1.219-.86z"/><text x="41" y="625.33" fill="#D9B8FF" font-family="Helvetica" font-size="17" textLength="115">aws_iam_role</text><rect width="339" height="39.789" x="199" y="599.55" fill="#3D176E" rx="2.5" ry="2.5" style="stroke:#000d19;stroke-width:.5"/><circle cx="214" cy="619.444" r="11" fill="#ADD1B2" style="stroke:#181818;stroke-width:1"/><path d="M216.969 625.085q-.578.297-1.219.438-.64.156-1.344.156-2.5 0-3.828-1.64-1.312-1.657-1.312-4.782t1.312-4.781q1.328-1.657 3.828-1.657.703 0 1.344.157.656.156 1.219.453v2.719q-.625-.579-1.219-.844-.594-.281-1.219-.281-1.344 0-2.031 1.078-.687 1.062-.687 3.156t.687 3.172q.688 1.062 2.031 1.062.625 0 1.219-.265.594-.282 1.219-.86z"/><text x="233" y="625.33" fill="#D9B8FF" font-family="Helvetica" font-size="17" textLength="297">azure_authorization_role_definition</text><rect width="218" height="39.789" x="572.5" y="599.55" fill="#3D176E" rx="2.5" ry="2.5" style="stroke:#000d19;stroke-width:.5"/><circle cx="587.5" cy="619.444" r="11" fill="#ADD1B2" style="stroke:#181818;stroke-width:1"/><path d="M590.469 625.085q-.578.297-1.219.438-.64.156-1.344.156-2.5 0-3.828-1.64-1.312-1.657-1.312-4.782t1.312-4.781q1.328-1.657 3.828-1.657.703 0 1.344.157.656.156 1.219.453v2.719q-.625-.579-1.219-.844-.594-.281-1.219-.281-1.343 0-2.031 1.078-.687 1.062-.687 3.156t.687 3.172q.688 1.062 2.031 1.062.625 0 1.219-.265.594-.282 1.219-.86z"/><text x="606.5" y="625.33" fill="#D9B8FF" font-family="Helvetica" font-size="17" textLength="176">microsoft_graph_role</text><rect width="227" height="310.758" x="255" y="7" fill="#3D176E" rx="2.5" ry="2.5" style="stroke:#000d19;stroke-width:.5"/><circle cx="323.75" cy="26.895" r="11" fill="#ADD1B2" style="stroke:#181818;stroke-width:1"/><path d="M326.719 32.535q-.578.297-1.219.438-.64.156-1.344.156-2.5 0-3.828-1.64-1.312-1.657-1.312-4.782t1.312-4.781q1.328-1.656 3.828-1.656.703 0 1.344.156.656.156 1.219.453v2.719q-.625-.578-1.219-.844-.594-.281-1.219-.281-1.344 0-2.031 1.078-.687 1.062-.687 3.156t.687 3.172q.688 1.062 2.031 1.062.625 0 1.219-.265.594-.281 1.219-.86z"/><text x="349.25" y="32.78" fill="#D9B8FF" font-family="Helvetica" font-size="17" textLength="71">resource</text><path d="M256 46.789h225" style="stroke:#000d19;stroke-width:.5"/><text x="266" y="68.784" fill="#D9B8FF" font-family="sans-serif" font-size="14" font-weight="bold" textLength="29">age</text><text x="295" y="68.784" fill="#D9B8FF" font-family="sans-serif" font-size="14" textLength="66">: duration</text><text x="266" y="95.081" fill="#D9B8FF" font-family="sans-serif" font-size="14" font-weight="bold" textLength="43">atime</text><text x="309" y="95.081" fill="#D9B8FF" font-family="sans-serif" font-size="14" textLength="70">: datetime</text><text x="266" y="121.378" fill="#D9B8FF" font-family="sans-serif" font-size="14" font-weight="bold" textLength="43">ctime</text><text x="309" y="121.378" fill="#D9B8FF" font-family="sans-serif" font-size="14" textLength="70">: datetime</text><text x="266" y="147.675" fill="#D9B8FF" font-family="sans-serif" font-size="14" font-weight="bold" textLength="14">id</text><text x="280" y="147.675" fill="#D9B8FF" font-family="sans-serif" font-size="14" textLength="48">: string</text><text x="266" y="173.972" fill="#D9B8FF" font-family="sans-serif" font-size="14" font-weight="bold" textLength="33">kind</text><text x="299" y="173.972" fill="#D9B8FF" font-family="sans-serif" font-size="14" textLength="48">: string</text><text x="266" y="200.269" fill="#D9B8FF" font-family="sans-serif" font-size="14" font-weight="bold" textLength="90">last_access</text><text x="356" y="200.269" fill="#D9B8FF" font-family="sans-serif" font-size="14" textLength="66">: duration</text><text x="266" y="226.565" fill="#D9B8FF" font-family="sans-serif" font-size="14" font-weight="bold" textLength="90">last_update</text><text x="356" y="226.565" fill="#D9B8FF" font-family="sans-serif" font-size="14" textLength="66">: duration</text><text x="266" y="252.862" fill="#D9B8FF" font-family="sans-serif" font-size="14" font-weight="bold" textLength="48">mtime</text><text x="314" y="252.862" fill="#D9B8FF" font-family="sans-serif" font-size="14" textLength="70">: datetime</text><text x="266" y="279.159" fill="#D9B8FF" font-family="sans-serif" font-size="14" font-weight="bold" textLength="43">name</text><text x="309" y="279.159" fill="#D9B8FF" font-family="sans-serif" font-size="14" textLength="48">: string</text><text x="266" y="305.456" fill="#D9B8FF" font-family="sans-serif" font-size="14" font-weight="bold" textLength="34">tags</text><text x="300" y="305.456" fill="#D9B8FF" font-family="sans-serif" font-size="14" textLength="171">: dictionary[string, string]</text><rect width="74" height="39.789" x="331.5" y="438.76" fill="#3D176E" rx="2.5" ry="2.5" style="stroke:#000d19;stroke-width:.5"/><circle cx="346.5" cy="458.654" r="11" fill="#ADD1B2" style="stroke:#181818;stroke-width:1"/><path d="M349.469 464.295q-.578.297-1.219.438-.64.156-1.344.156-2.5 0-3.828-1.64-1.312-1.657-1.312-4.782t1.312-4.781q1.328-1.656 3.828-1.656.703 0 1.344.156.656.156 1.219.453v2.719q-.625-.579-1.219-.844-.594-.281-1.219-.281-1.344 0-2.031 1.078-.687 1.062-.687 3.156t.687 3.172q.688 1.062 2.031 1.062.625 0 1.219-.265.594-.281 1.219-.86z"/><text x="365.5" y="464.54" fill="#D9B8FF" font-family="Helvetica" font-size="17" textLength="32">role</text><g fill="none"><path d="M318.382 487.778c-54.5 30.58-144.352 80.992-198.702 111.492" style="stroke:#ffaf37;stroke-width:2"/><path d="m334.08 478.97-18.634 3.575 5.872 10.466z" style="stroke:#ffaf37;stroke-width:2"/></g><path fill="none" d="M368.5 496.81v102.41m0-120.41-6 18h12z" style="stroke:#ffaf37;stroke-width:2"/><g fill="none"><path d="M421.992 486.794c60.04 30.46 161.158 81.756 221.528 112.386" style="stroke:#ffaf37;stroke-width:2"/><path d="m405.94 478.65 13.338 13.495 5.429-10.702z" style="stroke:#ffaf37;stroke-width:2"/></g><path fill="none" d="M368.5 335.85v102.83m0-120.83-6 18h12z" style="stroke:#ffaf37;stroke-width:2"/></svg>
